X:1
T:Title
%%score 1 ( 2 3 )
L:1/8
M:3/4
K:Bb
V:1 treble nm="Grand Piano"
V:2 bass nm="Grand Piano"
V:3 bass 
V:1
 z2 z2[Q:1/4=96] [B,D][CE] | [DF]3 [DB] [DB][Ec] | [EB]2 [EA]2 [EA][CE] | [EG]3 [EF] [EF][EG] | %4
[M:2/4] [DF]4 |[M:1/4] [B,D][CE] |[M:3/4] [DF]3 [Fd] [Fd][Ge] | [Fd]2 [Ec]2 [Ec][EG] | %8
 [DB]3 [CA] [DB][Ec] |[M:2/4] [DB]4 |[M:1/4] [DB][DA] |[M:3/4] [DG]3 [D^F] [DG]D | E2 D2 [DG][DA] | %13
 [DB]3 [F=B] [=Ed]>[Ec] |[M:2/4] [Fc]4 |[M:1/4] FF |[M:3/4] [FB]3 [F=B] [Gc][_Ad] | %17
 [Ge]2 [EG]2 [GB][Gc] | [Fd]3 [DF] [Ec]>[DB] |[M:2/4] [DB]4 |] %20
V:2
 z2 z2 [B,,F,][B,,B,] | [B,,B,]3 [B,,F,] [B,,F,][B,,F,] | [C,F,]2 [C,F,]2 z2 | %3
 z2 [F,A,][F,A,] [F,A,][F,A,] |[M:2/4] [B,,B,][B,,B,] [B,,B,]2 |[M:1/4] [B,,F,][B,,B,] | %6
[M:3/4] [B,,B,]3 [B,,B,] [B,,B,][B,,B,] | [E,G,]2 [E,G,]2 z2 | z2 [F,B,]F, F,F, | %9
[M:2/4] [B,,F,][B,,F,] [B,,F,]2 |[M:1/4] [D,G,][D,A,] |[M:3/4] [G,B,]3 [D,C] [D,B,]D, | %12
 E,2 z C, [B,,G,][A,,^F,] | [G,,G,]3 [D,G,] [C,B,]>[C,B,] |[M:2/4] [F,A,]4 |[M:1/4] [G,B,][A,C] | %16
[M:3/4] [B,D]3 [_A,D] [G,E][F,=B,] | [E,C]2 [E,C]2 z2 | [F,B,][F,B,] [F,B,][F,B,] [F,A,]>[F,B,] | %19
[M:2/4] [B,,F,B,]4 |] %20
V:3
 x6 | x6 | x6 | x6 |[M:2/4] x4 |[M:1/4] x2 |[M:3/4] x6 | x6 | x6 |[M:2/4] x4 |[M:1/4] x2 | %11
[M:3/4] x6 | z2 D,2 z2 | x6 |[M:2/4] x4 |[M:1/4] x2 |[M:3/4] x6 | x6 | x6 |[M:2/4] x4 |] %20

